packages/bezier-icons/icons/chat-check.svg

<svg width="24" height="24" viewBox="0 0 24 24" fill="none" xmlns="http://www.w3.org/2000/svg">
<path fill-rule="evenodd" clip-rule="evenodd" d="M18.8674 17.7642C18.6494 17.1082 18.7174 16.3922 19.0604 15.7482C19.9444 14.0932 20.2114 12.2282 19.8344 10.3542C19.1874 7.14318 16.5804 4.63318 13.3444 4.10918C12.8934 4.03618 12.4434 4.00018 11.9984 4.00018C9.87737 4.00018 7.87137 4.81818 6.34937 6.33818C4.50837 8.17518 3.69037 10.7232 4.10637 13.3272C4.64837 16.7132 7.40937 19.4222 10.8224 19.9152C12.5334 20.1622 14.2384 19.8662 15.7484 19.0612C16.3904 18.7172 17.1054 18.6482 17.7634 18.8672L19.4194 19.4192L18.8674 17.7642ZM20.8254 16.6892C20.7774 16.7782 20.7064 16.9562 20.7654 17.1322L21.6334 19.7352C21.8134 20.2782 21.6754 20.8662 21.2704 21.2702C20.8664 21.6752 20.2774 21.8112 19.7354 21.6332L17.1304 20.7652C16.9564 20.7062 16.7794 20.7762 16.6904 20.8242C15.2344 21.6022 13.6364 22.0002 12.0004 22.0002C11.5144 22.0002 11.0254 21.9652 10.5364 21.8942C6.26638 21.2782 2.81038 17.8842 2.13238 13.6432C1.61338 10.3972 2.63538 7.21918 4.93638 4.92218C7.23738 2.62518 10.4154 1.61118 13.6644 2.13518C17.7174 2.79118 20.9854 5.93518 21.7954 9.96018C22.2654 12.2942 21.9304 14.6212 20.8254 16.6892ZM8.08404 11.6708L10.4035 13.898L15.852 8.77854C16.2543 8.40048 16.887 8.42018 17.2651 8.82254C17.6431 9.22487 17.6234 9.85746 17.2211 10.2355L11.1002 15.9881C10.7014 16.3629 10.0788 16.3596 9.68406 15.9805L6.69865 13.1135C6.30034 12.731 6.28745 12.0981 6.66984 11.6997C7.05237 11.3011 7.68557 11.2882 8.08404 11.6708Z" fill="#313234"/>
</svg>

<svg xmlns="http://www.w3.org/2000/svg" width="24" height="24" fill="none" viewBox="0 0 24 24"><path fill="#313234" fill-rule="evenodd" d="M18.867 17.764c-.218-.656-.15-1.372.193-2.016.884-1.655 1.151-3.52.774-5.394a7.95 7.95 0 0 0-6.49-6.245A8.4 8.4 0 0 0 11.998 4 7.93 7.93 0 0 0 6.35 6.338c-1.84 1.837-2.659 4.385-2.243 6.99.542 3.385 3.303 6.094 6.716 6.587a7.98 7.98 0 0 0 4.926-.854c.642-.344 1.357-.413 2.015-.194l1.656.552zm1.958-1.075c-.048.09-.119.267-.06.443l.868 2.603c.18.543.042 1.131-.363 1.535a1.5 1.5 0 0 1-1.535.363l-2.605-.868c-.174-.059-.35.011-.44.06A9.9 9.9 0 0 1 12 22q-.73 0-1.464-.106c-4.27-.616-7.726-4.01-8.404-8.25-.519-3.247.503-6.425 2.804-8.722s5.48-3.31 8.728-2.787c4.053.656 7.321 3.8 8.131 7.825.47 2.334.135 4.661-.97 6.73M8.084 11.671l2.32 2.227 5.448-5.12a1 1 0 0 1 1.37 1.457L11.1 15.989a1.03 1.03 0 0 1-1.416-.008L6.7 13.113a1 1 0 1 1 1.385-1.442" clip-rule="evenodd"/></svg>
